X:1
T:Cup of Tea
M:C|
L:1/8
K:D
eA(3AAA g2fg|eAAc BGG2|eA(3AAA g2fg|afge dgfg|!
eA(3AAA g2fg|eAAc BGG2|eA(3AAA g2fg|afge de(cd):|]!
eaag efgf|eaag edcd|eaag efgb|afge d2(cd|!
eaag efgf|eaag edcd|eaag efgb|afge dgfg:||!
